img/icons/smarthr.svg

<?xml version="1.0" encoding="UTF-8"?>
<svg width="783px" height="140px" viewBox="0 0 783 140" version="1.1" xmlns="http://www.w3.org/2000/svg" xmlns:xlink="http://www.w3.org/1999/xlink">
    <!-- Generator: Sketch 46.2 (44496) - http://www.bohemiancoding.com/sketch -->
    <title>logo_type-G@2x</title>
    <desc>Created with Sketch.</desc>
    <defs>
        <polygon id="path-1" points="4.27401747e-05 0.132921943 139.20009 0.132921943 139.20009 139.332884 4.27401747e-05 139.332884"></polygon>
    </defs>
    <g id="Symbols" stroke="none" stroke-width="1" fill="none" fill-rule="evenodd">
        <g id="logo_type-G">
            <g id="Page-1">
                <path d="M64.4779985,84.1258277 C63.9531491,84.1258277 63.4201791,84.0544516 62.8906284,83.9040062 C59.7825629,83.0231312 56.867683,81.6122781 54.227195,79.7103403 C41.7846753,70.7507175 38.9518566,53.3383703 47.9119068,40.8962781 C52.2521715,34.8686312 58.6798664,30.8925128 66.0110885,29.6996345 C73.3418833,28.5067562 80.6987496,30.2402977 86.7263964,34.5809898 C90.8589439,37.5569882 94.0905285,41.5980717 96.0706808,46.2670084 C97.3238227,49.2212093 95.9450247,52.6314478 92.9908238,53.8845897 C90.0374777,55.1368769 86.6263844,53.7585062 85.3736699,50.8047328 C84.2235318,48.0928687 82.3429641,45.7438687 79.9358374,44.0103272 C76.4272965,41.4835281 72.144731,40.4744325 67.8771246,41.1689604 C63.6095181,41.8630608 59.8676158,44.1778687 57.3408167,47.6864096 C52.1252332,54.929587 53.7745765,65.0654194 61.0173265,70.2814303 C62.5585372,71.3913927 64.2548948,72.2132862 66.0593849,72.7248861 C69.1460803,73.5997775 70.9398855,76.8117016 70.0645667,79.8988245 C69.3396933,82.4563965 67.0107812,84.1258277 64.4779985,84.1258277" id="Fill-1" fill="#00C4CC"></path>
                <path d="M69.1537736,110.705942 C63.52532,110.705942 57.8472878,109.006593 52.9415705,105.47369 C47.8435225,101.802309 44.1050394,96.4542311 42.4150929,90.4141896 C41.5508866,87.324075 43.3549493,84.1181345 46.445064,83.2539282 C49.5351786,82.3892944 52.7411191,84.1937846 53.6053254,87.2838992 C54.6020263,90.8467202 56.7206568,93.8761438 59.7317021,96.0443528 C66.9744521,101.260364 77.1107119,99.6114478 82.3267228,92.3682704 C87.5427337,85.125093 85.8933904,74.9892606 78.650213,69.7732497 C77.7560885,69.1291552 76.799136,68.5765248 75.8058544,68.1303174 C72.8790072,66.8156296 71.5724401,63.3767551 72.8871278,60.449908 C74.202243,57.5226334 77.6411175,56.2160663 80.5679646,57.5311814 C82.2732976,58.2970854 83.9128107,59.2437802 85.4407719,60.3439123 C97.8828642,69.3039626 100.71611,86.7163097 91.7560602,99.158402 C86.3289128,106.694777 77.8001109,110.705942 69.1537736,110.705942" id="Fill-3" fill="#00C4CC"></path>
                <g id="Group-7" transform="translate(0.000000, 0.294480)">
                    <mask id="mask-2" fill="white">
                        <use xlink:href="#path-1"></use>
                    </mask>
                    <g id="Clip-6"></g>
                    <path d="M94.6426033,0.132836463 L44.5575296,0.132836463 C38.5474063,0.132836463 32.7112354,1.31246528 27.2101475,3.63924039 C21.9031001,5.88395437 17.1388528,9.09502369 13.0507551,13.1835488 C8.96222997,17.2716465 5.75116064,22.0358938 3.50644667,27.3429413 C1.17967156,32.8440291 4.27401747e-05,38.6802 4.27401747e-05,44.6903234 L4.27401747e-05,94.7753971 C4.27401747e-05,100.78552 1.17967156,106.622119 3.50644667,112.122779 C5.75116064,117.429827 8.96222997,122.194074 13.0507551,126.282172 C17.1388528,130.370697 21.9031001,133.581766 27.2101475,135.82648 C32.7112354,138.153255 38.5474063,139.332884 44.5575296,139.332884 L94.6426033,139.332884 C100.652727,139.332884 106.489325,138.153255 111.989985,135.82648 C117.297033,133.581766 122.06128,130.370697 126.149378,126.282172 C130.237903,122.194074 133.448972,117.429827 135.693686,112.122779 C138.020461,106.622119 139.20009,100.78552 139.20009,94.7753971 L139.20009,44.6903234 C139.20009,38.6802 138.020461,32.8440291 135.693686,27.3429413 C133.448972,22.0358938 130.237903,17.2716465 126.149378,13.1835488 C122.06128,9.09502369 117.297033,5.88395437 111.989985,3.63924039 C106.489325,1.31246528 100.652727,0.132836463 94.6426033,0.132836463 M94.6426033,11.7526078 C112.833676,11.7526078 127.580319,26.4992502 127.580319,44.6903234 L127.580319,94.7753971 C127.580319,112.96647 112.833676,127.713113 94.6426033,127.713113 L44.5575296,127.713113 C26.3664565,127.713113 11.619814,112.96647 11.619814,94.7753971 L11.619814,44.6903234 C11.619814,26.4992502 26.3664565,11.7526078 44.5575296,11.7526078 L94.6426033,11.7526078" id="Fill-5" fill="#00C4CC" mask="url(#mask-2)"></path>
                </g>
                <path d="M370.158121,51.2184149 C374.587285,56.0707069 376.803364,63.9887517 376.803364,74.9759684 L376.803364,123.322372 C376.803364,124.66826 375.712634,125.758989 374.366746,125.758989 L356.001293,125.758989 C354.655405,125.758989 353.564676,124.66826 353.564676,123.322372 L353.564676,78.4148428 C353.564676,75.1473565 353.14283,72.6120093 352.303841,70.8058096 C351.460577,68.9991824 350.262142,67.7597173 348.702126,67.0916884 C347.14211,66.423232 345.126056,66.0907135 342.650972,66.0907135 C339.780115,66.0907135 337.330248,66.7843865 335.300517,68.1695956 C333.270359,69.5565142 331.663755,71.4853783 330.474724,73.9604618 L330.474724,75.5939913 L330.474724,123.322372 C330.474724,124.66826 329.383995,125.758989 328.038106,125.758989 L309.748303,125.758989 C308.402415,125.758989 307.311686,124.66826 307.311686,123.322372 L307.311686,78.5627239 C307.311686,75.2482233 306.890268,72.6727004 306.048714,70.8425661 C305.205878,69.0124318 303.993766,67.7597173 302.41067,67.0916884 C300.825437,66.423232 298.797416,66.0907135 296.32276,66.0907135 C293.600638,66.0907135 291.225139,66.6971966 289.194981,67.9093079 C287.16525,69.1231289 285.508213,70.8425661 284.220452,73.0689018 L284.220452,123.322372 C284.220452,124.66826 283.129295,125.758989 281.783407,125.758989 L263.493604,125.758989 C262.147716,125.758989 261.056987,124.66826 261.056987,123.322372 L261.056987,47.8624564 C261.056987,46.5169957 262.147716,45.425839 263.493604,45.425839 L280.563175,45.425839 C281.832558,45.425839 282.889096,46.400315 282.992099,47.6654242 L283.551996,54.5598418 C286.224966,51.1444744 289.492453,48.5219373 293.352318,46.6883838 C297.21432,44.8582495 301.59476,43.9419002 306.493639,43.9419002 C311.443806,43.9419002 315.699873,44.9458669 319.264403,46.9486715 C322.827224,48.953613 325.575845,52.0108177 327.504709,56.1177211 C330.127246,52.2091322 333.445166,49.2019335 337.454622,47.0982621 C341.464078,44.9941633 346.091129,43.9419002 351.33834,43.9419002 C359.454699,43.9419002 365.728957,46.3678325 370.158121,51.2184149" id="Fill-8" fill="#00C4CC"></path>
                <path d="M429.377924,107.829101 C431.77864,106.467399 433.500214,104.821903 434.5388,102.890901 L434.5388,89.7512895 L426.222844,89.7512895 C421.273105,89.7512895 417.611554,90.8762109 415.235628,93.1294729 C412.860129,95.3827349 411.671097,98.240343 411.671097,101.704007 C411.671097,104.130366 412.525473,106.098124 414.232943,107.605997 C415.940841,109.116863 418.203933,109.870799 421.026494,109.870799 C424.193114,109.870799 426.976781,109.190803 429.377924,107.829101 M455.337024,125.759032 L438.089227,125.759032 C436.742911,125.759032 435.652182,124.668303 435.652182,123.322415 L435.652182,118.63168 C430.801599,124.373823 424.167897,127.243398 415.754494,127.243398 C410.75432,127.243398 406.177275,126.215924 402.019938,124.163969 C397.861319,122.109021 394.570753,119.237736 392.144394,115.550541 C389.719744,111.863774 388.507632,107.716695 388.507632,103.114433 C388.507632,94.6505957 391.637068,88.1292999 397.898503,83.552682 C404.159084,78.9739271 413.477724,76.6834811 425.85186,76.6834811 L434.5388,76.6834811 L434.5388,72.3030406 C434.5388,68.6902136 433.659207,65.8813294 431.903014,63.8763878 C430.14511,61.8735832 427.434956,60.8691891 423.773405,60.8691891 C420.505919,60.8691891 417.969289,61.6483425 416.162235,63.2083588 C414.807371,64.37773 413.960688,65.9300532 413.622186,67.8649009 C413.417033,69.0355543 412.469056,69.9271143 411.280879,69.9271143 L392.949191,69.9275417 C391.507138,69.9275417 390.350588,68.6761094 390.513429,67.2430313 C390.947241,63.4391558 392.319628,59.9293326 394.632727,56.7118523 C397.478367,52.7528299 401.536547,49.6332246 406.808548,47.3568829 C412.078838,45.081396 418.155209,43.9415155 425.03595,43.9415155 C431.419195,43.9415155 437.074147,45.0194227 442.00038,47.1722453 C446.924903,49.3246405 450.784768,52.5314358 453.582113,56.7857928 C456.377747,61.0439964 457.776206,66.2655635 457.776206,72.4509216 L457.776206,105.713463 C457.776206,109.285259 457.773641,118.814608 457.772787,123.326261 C457.772359,124.670867 456.682057,125.759032 455.337024,125.759032" id="Fill-10" fill="#00C4CC"></path>
                <path d="M573.940282,110.505363 L573.940282,123.364172 C573.940282,124.434386 573.253875,125.408007 572.224264,125.701632 C568.623404,126.729106 564.690454,127.24327 560.427976,127.24327 C552.657385,127.24327 546.703678,125.288762 542.571558,121.378463 C538.439438,117.468165 536.372951,111.306314 536.372951,102.891201 L536.372951,63.6163993 L527.822352,63.6163993 C526.476463,63.6163993 525.385734,62.52567 525.385734,61.1797819 L525.385734,46.378432 C525.385734,45.0325439 526.476463,43.9418147 527.822352,43.9418147 L536.372951,43.9418147 L536.372951,27.9663922 C536.372951,26.6205041 537.46368,25.5297748 538.809996,25.5297748 L557.101508,25.5297748 C558.446969,25.5297748 559.538126,26.6205041 559.538126,27.9663922 L559.538126,43.9418147 L570.538164,43.9418147 C571.883625,43.9418147 572.974782,45.0325439 572.974782,46.378432 L572.974782,61.1797819 C572.974782,62.52567 571.883625,63.6163993 570.538164,63.6163993 L559.538126,63.6163993 L559.538126,100.070349 C559.538126,103.238678 560.155721,105.392783 561.393477,106.529672 C562.630805,107.669552 564.734476,108.237142 567.704491,108.237142 C568.95806,108.237142 570.139398,108.187563 571.249361,108.086696 C572.692269,107.956339 573.940282,109.056471 573.940282,110.505363" id="Fill-12" fill="#00C4CC"></path>
                <path d="M517.999505,46.7490748 L517.762725,61.2063663 C517.743919,62.6300415 516.51343,63.7297462 515.095738,63.5998161 C512.657411,63.3771398 510.857622,63.2980705 509.709194,63.3993647 C505.575791,63.7643658 502.521579,65.1371802 499.797747,67.1280175 C496.807645,69.3141775 494.191946,74.0643205 494.191946,77.859648 L494.191946,123.322372 C494.191946,124.66826 493.100789,125.758989 491.754901,125.758989 L473.465098,125.758989 C472.11921,125.758989 471.028481,124.66826 471.028481,123.322372 L471.028481,47.8624564 C471.028481,46.5169957 472.11921,45.425839 473.465098,45.425839 L490.520992,45.425839 C491.795504,45.425839 492.855033,46.408863 492.950771,47.6799558 L493.479895,53.6811038 C495.509625,50.017416 497.952226,48.0402555 501.058155,46.2652561 C504.480788,44.3094657 507.457641,43.9419002 511.268783,43.9419002 C513.043782,43.9419002 514.605508,44.0632823 515.954388,44.3073287 C517.144275,44.5223117 518.015747,45.5395279 517.999505,46.7490748" id="Fill-14" fill="#00C4CC"></path>
                <path d="M227.371318,63.070479 L211.590364,56.8013502 C202.255055,53.1423639 195.510655,50.4997389 195.510655,44.0254572 C195.510655,37.5832307 200.890361,33.7383246 209.902981,33.7383246 C217.496201,33.7383246 224.004247,35.8684949 231.19229,40.785752 C232.236005,41.4999403 233.660535,41.2644419 234.447382,40.2745795 L244.131878,28.0872187 C244.953344,27.0537612 244.790931,25.5681128 243.794658,24.7017694 C234.740152,16.8239004 222.304898,12.1934299 209.902981,12.1934299 C186.988264,12.1934299 169.707984,26.5323311 169.707984,45.5470074 C169.707984,64.7796586 185.386362,73.0874938 192.126061,75.7673027 L208.52632,82.6694135 C217.288911,86.3348109 223.078495,88.7556144 223.078495,95.4196624 C223.078495,99.4325374 221.050046,106.163688 207.470211,106.163688 C199.532933,106.163688 189.973238,102.477775 181.897909,96.4061057 C180.861033,95.6260975 179.40402,95.7645757 178.580844,96.7672602 L167.287608,110.521048 C166.446481,111.545103 166.56017,113.075629 167.582943,113.918037 C178.382957,122.81184 192.518415,127.861165 206.860736,127.861165 C235.941151,127.861165 249.185049,109.941492 249.185049,93.292484 C249.185049,78.6582481 242.253874,69.0558131 227.371318,63.070479" id="Fill-16" fill="#00C4CC"></path>
                <path d="M752.096289,61.1467438 C749.324162,63.603449 745.290771,64.8288098 739.994836,64.8288098 L722.767554,64.8288098 L722.767554,36.9959807 L739.994836,36.9959807 C745.339068,36.9959807 749.386135,38.2243333 752.134755,40.6780467 C754.882094,43.1334698 756.255336,46.5676428 756.255336,50.9809932 C756.255336,55.3050167 754.868417,58.6930303 752.096289,61.1467438 M782.381977,122.213478 L761.249953,80.8375697 C767.436165,78.0150085 772.164938,74.1795052 775.432425,69.3284954 C778.698201,64.475776 780.332158,58.1421095 780.332158,50.3185205 C780.332158,43.291181 778.710596,37.3370473 775.469609,32.4603933 C772.225629,27.5863038 767.572507,23.8969719 761.508531,21.3979539 C755.445409,18.8993633 748.25523,17.6470762 739.939701,17.6470762 L701.018361,17.6470762 C699.672901,17.6470762 698.581317,18.7378055 698.581317,20.084121 L698.581317,123.322158 C698.581317,124.668046 699.672901,125.758775 701.018361,125.758775 L720.275802,125.758775 C721.62169,125.758775 722.712847,124.668046 722.712847,123.322158 L722.712847,84.5388688 L737.60908,84.5388688 L757.677301,124.421863 C758.091881,125.242047 758.933008,125.758775 759.851921,125.758775 L780.211631,125.758775 C782.032362,125.758775 783.210282,123.83504 782.381977,122.213478" id="Fill-18" fill="#00C4CC"></path>
                <path d="M681.053656,19.9682096 L681.053656,123.319081 C681.053656,124.666678 679.961218,125.759117 678.61362,125.759117 L659.409177,125.759117 C658.062007,125.759117 656.969568,124.666678 656.969568,123.319081 L656.969568,84.231054 L615.937291,84.231054 L615.937291,123.319081 C615.937291,124.666678 614.845279,125.759117 613.497682,125.759117 L594.219298,125.759117 C592.872128,125.759117 591.779689,124.666678 591.779689,123.319081 L591.779689,19.9682096 C591.779689,18.6210393 592.872128,17.5286004 594.219298,17.5286004 L613.497682,17.5286004 C614.845279,17.5286004 615.937291,18.6210393 615.937291,19.9682096 L615.937291,64.8287243 L656.969568,64.8287243 L656.969568,19.9682096 C656.969568,18.6210393 658.062007,17.5286004 659.409177,17.5286004 L678.61362,17.5286004 C679.961218,17.5286004 681.053656,18.6210393 681.053656,19.9682096" id="Fill-20" fill="#00C4CC"></path>
            </g>
        </g>
    </g>
</svg>

<svg width="783" height="140" viewBox="0 0 783 140" xmlns="http://www.w3.org/2000/svg" xmlns:xlink="http://www.w3.org/1999/xlink"><defs><path id="a" d="M0 .133h139.2v139.2H0z"/></defs><g fill="none" fill-rule="evenodd"><path d="M64.478 84.126a5.8 5.8 0 0 1-1.587-.222 27.714 27.714 0 0 1-8.664-4.194c-12.442-8.96-15.275-26.372-6.315-38.814 4.34-6.027 10.768-10.003 18.1-11.196 7.33-1.193 14.687.54 20.714 4.881a27.766 27.766 0 0 1 9.345 11.686 5.81 5.81 0 1 1-10.697 4.538 16.149 16.149 0 0 0-5.438-6.795 16.08 16.08 0 0 0-12.059-2.841 16.081 16.081 0 0 0-10.536 6.517c-5.216 7.244-3.566 17.38 3.676 22.595a16.14 16.14 0 0 0 5.042 2.444 5.81 5.81 0 0 1-1.581 11.4" fill="#00C4CC"/><path d="M69.154 110.706c-5.629 0-11.307-1.7-16.212-5.232a27.892 27.892 0 0 1-10.527-15.06 5.81 5.81 0 0 1 11.19-3.13 16.008 16.008 0 0 0 6.127 8.76c7.242 5.216 17.379 3.567 22.595-3.676 5.216-7.243 3.566-17.379-3.677-22.595a16.319 16.319 0 0 0-2.844-1.643 5.81 5.81 0 1 1 4.762-10.599 27.976 27.976 0 0 1 4.873 2.813c12.442 8.96 15.275 26.372 6.315 38.814-5.427 7.537-13.956 11.548-22.602 11.548" fill="#00C4CC"/><g transform="translate(0 .294)"><mask id="b" fill="#fff"><use xlink:href="#a"/></mask><path d="M94.643.133H44.558c-6.01 0-11.847 1.18-17.348 3.506a44.39 44.39 0 0 0-14.16 9.545 44.39 44.39 0 0 0-9.544 14.159A44.288 44.288 0 0 0 0 44.69v50.085c0 6.01 1.18 11.847 3.506 17.348a44.39 44.39 0 0 0 9.545 14.16 44.39 44.39 0 0 0 14.16 9.543 44.288 44.288 0 0 0 17.347 3.507h50.085c6.01 0 11.846-1.18 17.347-3.507a44.39 44.39 0 0 0 14.16-9.544 44.39 44.39 0 0 0 9.544-14.16 44.286 44.286 0 0 0 3.506-17.347V44.69a44.3 44.3 0 0 0-3.506-17.347 44.39 44.39 0 0 0-9.545-14.16A44.39 44.39 0 0 0 111.99 3.64 44.286 44.286 0 0 0 94.643.133m0 11.62c18.19 0 32.937 14.746 32.937 32.937v50.085c0 18.191-14.746 32.938-32.937 32.938H44.558c-18.192 0-32.938-14.747-32.938-32.938V44.69c0-18.19 14.746-32.937 32.938-32.937h50.085" fill="#00C4CC" mask="url(#b)"/></g><path d="M370.158 51.218c4.43 4.853 6.645 12.77 6.645 23.758v48.346a2.436 2.436 0 0 1-2.436 2.437H356a2.436 2.436 0 0 1-2.436-2.437V78.415c0-3.268-.422-5.803-1.261-7.61-.843-1.806-2.042-3.045-3.602-3.713-1.56-.669-3.576-1.001-6.051-1.001-2.87 0-5.32.693-7.35 2.079-2.03 1.387-3.637 3.315-4.826 5.79v49.362a2.436 2.436 0 0 1-2.437 2.437h-18.29a2.436 2.436 0 0 1-2.436-2.437v-44.76c0-3.314-.422-5.89-1.263-7.72-.843-1.83-2.055-3.082-3.638-3.75-1.586-.669-3.614-1.001-6.088-1.001-2.722 0-5.098.606-7.128 1.818-2.03 1.214-3.687 2.934-4.975 5.16v50.253a2.437 2.437 0 0 1-2.437 2.437h-18.29a2.436 2.436 0 0 1-2.436-2.437v-75.46a2.437 2.437 0 0 1 2.437-2.436h17.07c1.269 0 2.325.974 2.428 2.24l.56 6.894c2.673-3.416 5.94-6.038 9.8-7.872 3.862-1.83 8.243-2.746 13.142-2.746 4.95 0 9.206 1.004 12.77 3.007 3.563 2.005 6.312 5.062 8.24 9.169 2.623-3.909 5.941-6.916 9.95-9.02 4.01-2.104 8.637-3.156 13.884-3.156 8.117 0 14.391 2.426 18.82 7.276m59.221 56.612c2.4-1.363 4.122-3.008 5.16-4.94V89.752h-8.315c-4.95 0-8.611 1.125-10.987 3.378-2.376 2.254-3.565 5.111-3.565 8.575 0 2.426.854 4.394 2.562 5.902 1.708 1.51 3.97 2.265 6.793 2.265 3.167 0 5.95-.68 8.352-2.042m25.959 17.93h-17.248a2.436 2.436 0 0 1-2.437-2.437v-4.69c-4.85 5.742-11.484 8.611-19.898 8.611-5 0-9.577-1.027-13.734-3.079-4.159-2.055-7.45-4.926-9.876-8.613-2.424-3.687-3.636-7.834-3.636-12.437 0-8.463 3.13-14.985 9.39-19.561 6.261-4.58 15.58-6.87 27.954-6.87h8.687v-4.38c0-3.613-.88-6.422-2.636-8.427-1.758-2.002-4.468-3.007-8.13-3.007-3.267 0-5.804.78-7.61 2.34-1.356 1.169-2.202 2.721-2.54 4.656-.206 1.17-1.154 2.062-2.342 2.062h-18.332c-1.442 0-2.598-1.25-2.436-2.684.434-3.804 1.807-7.314 4.12-10.531 2.845-3.96 6.904-7.079 12.176-9.355 5.27-2.276 11.346-3.415 18.227-3.415 6.383 0 12.038 1.077 16.964 3.23 4.925 2.153 8.785 5.36 11.582 9.614 2.796 4.258 4.194 9.48 4.194 15.665v33.262l-.003 17.613a2.434 2.434 0 0 1-2.436 2.433m118.603-15.255v12.86c0 1.07-.686 2.043-1.716 2.337-3.6 1.027-7.534 1.541-11.796 1.541-7.77 0-13.724-1.954-17.856-5.865-4.133-3.91-6.199-10.072-6.199-18.487V63.616h-8.55a2.436 2.436 0 0 1-2.437-2.436V46.378a2.436 2.436 0 0 1 2.436-2.436h8.551V27.966a2.436 2.436 0 0 1 2.437-2.436h18.292a2.437 2.437 0 0 1 2.436 2.436v15.976h11a2.437 2.437 0 0 1 2.437 2.436V61.18a2.437 2.437 0 0 1-2.437 2.436h-11v36.454c0 3.169.618 5.323 1.855 6.46 1.238 1.14 3.341 1.707 6.311 1.707 1.254 0 2.435-.05 3.545-.15 1.443-.13 2.691.97 2.691 2.418M518 46.75l-.237 14.456a2.44 2.44 0 0 1-2.667 2.394c-2.439-.223-4.238-.302-5.387-.2-4.133.364-7.187 1.737-9.911 3.728-2.99 2.186-5.606 6.936-5.606 10.732v45.462a2.437 2.437 0 0 1-2.437 2.437h-18.29a2.436 2.436 0 0 1-2.437-2.437v-75.46a2.437 2.437 0 0 1 2.437-2.436h17.056c1.275 0 2.334.983 2.43 2.254l.529 6.001c2.03-3.664 4.472-5.64 7.578-7.416 3.423-1.956 6.4-2.323 10.21-2.323 1.776 0 3.338.121 4.686.365 1.19.215 2.062 1.233 2.046 2.442M227.371 63.07l-15.78-6.269c-9.336-3.659-16.08-6.301-16.08-12.776 0-6.442 5.38-10.287 14.392-10.287 7.593 0 14.101 2.13 21.29 7.048 1.043.714 2.468.478 3.254-.511l9.685-12.188c.821-1.033.659-2.519-.337-3.385-9.055-7.878-21.49-12.509-33.892-12.509-22.915 0-40.195 14.34-40.195 33.354 0 19.233 15.678 27.54 22.418 30.22l16.4 6.902c8.763 3.666 14.552 6.087 14.552 12.75 0 4.014-2.028 10.745-15.608 10.745-7.937 0-17.497-3.686-25.572-9.758-1.037-.78-2.494-.641-3.317.361l-11.293 13.754c-.842 1.024-.728 2.555.295 3.397 10.8 8.894 24.935 13.943 39.278 13.943 29.08 0 42.324-17.92 42.324-34.569 0-14.634-6.931-24.236-21.814-30.222m524.725-1.923c-2.772 2.456-6.805 3.682-12.101 3.682h-17.227V36.996h17.227c5.344 0 9.391 1.228 12.14 3.682 2.747 2.455 4.12 5.89 4.12 10.303 0 4.324-1.387 7.712-4.159 10.166m30.286 61.066L761.25 80.838c6.186-2.823 10.915-6.658 14.182-11.51 3.266-4.852 4.9-11.186 4.9-19.01 0-7.027-1.621-12.981-4.862-17.858-3.244-4.874-7.897-8.563-13.961-11.062-6.064-2.499-13.254-3.75-21.57-3.75h-38.92a2.437 2.437 0 0 0-2.438 2.436v103.238a2.437 2.437 0 0 0 2.437 2.437h19.258a2.437 2.437 0 0 0 2.437-2.437V84.54h14.896l20.068 39.883a2.436 2.436 0 0 0 2.175 1.337h20.36c1.82 0 2.998-1.924 2.17-3.546M681.054 19.968V123.32a2.44 2.44 0 0 1-2.44 2.44h-19.205a2.44 2.44 0 0 1-2.44-2.44V84.231h-41.032v39.088a2.44 2.44 0 0 1-2.44 2.44H594.22a2.44 2.44 0 0 1-2.44-2.44V19.97a2.44 2.44 0 0 1 2.44-2.44h19.279a2.44 2.44 0 0 1 2.44 2.44v44.86h41.032V19.97a2.44 2.44 0 0 1 2.44-2.44h19.204a2.44 2.44 0 0 1 2.44 2.44" fill="#00C4CC"/></g></svg>
